public/flags/SA.svg

<svg fill="none" height="53" viewBox="0 0 61 53" width="61" xmlns="http://www.w3.org/2000/svg" xmlns:xlink="http://www.w3.org/1999/xlink"><mask id="a" height="43" maskUnits="userSpaceOnUse" width="59" x="1" y="3"><rect fill="#fff" height="42.5" rx="4.24286" width="59" x="1" y="3"/></mask><rect fill="#fff" height="42.5" rx="4.24286" width="59" x="1" y="3"/><g mask="url(#a)"><path d="m1 3h59v42.5h-59z" fill="#128c4b"/><g clip-rule="evenodd" fill="#fff" fill-rule="evenodd"><path d="m15.0476 28.5h22.4762v-1.9529c0-1.0535 1.1104-1.7372 2.051-1.2629l.7585.3825v2.8333h4.2048c.7811 0 1.4143.6332 1.4143 1.4143v1.4238c0 1.5622-1.2664 2.8286-2.8286 2.8286h-4.1857c-.7811 0-1.4143-.6332-1.4143-1.4143v-1.419h-19.0774c-.3771 0-.7387-.1507-1.0042-.4185z"/><path d="m15.0476 20.2911c0-.1865.0737-.3655.205-.4979l.706-.712c.2734-.2757.2734-.7202 0-.9959l-.706-.712c-.1313-.1324-.205-.3114-.205-.4979v-1.835c0-.3905.3166-.7071.7072-.7071h1.5645c.297 0 .5378.2407.5378.5378 0 .5685.7672.7482 1.0197.2389l.2068-.4172c.1092-.2202.3338-.3595.5796-.3595h3.1058c.3906 0 .7072.3177.7072.7083 0 .3905-.3166.7083-.7072.7083h-1.3952c-.3905 0-.7071.3178-.7071.7084 0 .3905.3166.7083.7071.7083h1.3952c.3906 0 .7072.3166.7072.7071v4.2524c0 .3906-.3166.7072-.7072.7072h-1.3952c-.3905 0-.7071-.3166-.7071-.7072v-1.4238c0-.3879.3144-.7024.7023-.7024.388 0 .7024-.318.7024-.7059 0-.3906-.3166-.7107-.7071-.7107h-1.3953c-.3905 0-.7071.3166-.7071.7071v2.8405c0 .3879-.3145.7024-.7024.7024-.3879 0-.7024-.3145-.7024-.7024v-1.4286c0-.3879-.3144-.7024-.7023-.7024-.388 0-.7024.3145-.7024.7024v1.4286c0 .3879-.3145.7024-.7024.7024-.3879 0-.7024-.3145-.7024-.7024z"/><path d="m37.5239 20.2911c0-.1865.0737-.3655.205-.4979l.7061-.712c.2733-.2757.2733-.7202 0-.9959l-.7061-.712c-.1313-.1324-.205-.3114-.205-.4979v-1.835c0-.3905.3166-.7071.7072-.7071h1.5645c.2971 0 .5378.2407.5378.5378 0 .5685.7672.7482 1.0197.2389l.2068-.4172c.1092-.2202.3338-.3595.5796-.3595h3.1059c.3905 0 .7071.3177.7071.7083 0 .3905-.3166.7083-.7071.7083h-1.3953c-.3905 0-.7071.3178-.7071.7084 0 .3905.3166.7083.7071.7083h1.3953c.3905 0 .7071.3166.7071.7071v4.2524c0 .3906-.3166.7072-.7071.7072h-1.3953c-.3905 0-.7071-.3166-.7071-.7072v-1.4238c0-.3879.3144-.7024.7024-.7024.3879 0 .7023-.318.7023-.7059 0-.3906-.3166-.7107-.7071-.7107h-1.3952c-.3906 0-.7072.3166-.7072.7071v2.8405c0 .3879-.3145.7024-.7024.7024-.3879 0-.7024-.3145-.7024-.7024v-1.4286c0-.3879-.3144-.7024-.7023-.7024-.3879 0-.7024.3145-.7024.7024v1.4286c0 .3879-.3145.7024-.7024.7024-.3879 0-.7024-.3145-.7024-.7024z"/><path d="m34.7142 16.4516c0 .3949-.2195.9363-.5071 1.2264l-.3905.3938c-.2801.2825-.2877.7328 0 1.0229l.3905.3938c.2801.2824.5071.8146.5071 1.2264v1.4034c0 .3948-.3007.715-.7089.715h-1.3916c-.3916 0-.709-.3033-.709-.715v-1.4034c0-.3949-.1296-.4535-.3258-.0578l-.7532 1.519c-.1799.3629-.6565.6572-1.0217.6572h-2.8225c-.3843 0-.6959-.3286-.6959-.7084 0-.3912.3007-.7083.709-.7083h1.3916c.3916 0 .709-.3286.709-.7083 0-.3913-.3007-.7084-.709-.7084h-1.3916c-.3915 0-.709-.3046-.709-.6948v-4.277c0-.3838.3007-.6948.709-.6948h1.3916c.3916 0 .709.3032.709.7149v1.4034c0 .3949-.3258.715-.7024.715-.3879 0-.7024.3286-.7024.7083 0 .3912.3007.7084.709.7084h1.3916c.3915 0 .7089-.3335.7089-.7018v-2.8464c0-.3876.3258-.7018.7024-.7018.3879 0 .7024.3032.7024.7149v1.4034c0 .3949.3258.715.7024.715.3879 0 .7024-.3032.7024-.715v-1.4034c0-.3948.3258-.7149.7023-.7149.3879 0 .7024.3032.7024.7149z"/></g></g></svg>

<svg width="61" height="53" viewBox="0 0 61 53" fill="none" xmlns="http://www.w3.org/2000/svg">
<rect x="1" y="3" width="59" height="42.5" rx="4.24286" fill="white"/>
<mask id="mask0" mask-type="alpha" maskUnits="userSpaceOnUse" x="1" y="3" width="59" height="43">
<rect x="1" y="3" width="59" height="42.5" rx="4.24286" fill="white"/>
</mask>
<g mask="url(#mask0)">
<rect x="1" y="3" width="59" height="42.5" fill="#128C4B"/>
<path fill-rule="evenodd" clip-rule="evenodd" d="M15.0476 28.5H37.5238V26.5471C37.5238 25.4936 38.6342 24.8099 39.5748 25.2842L40.3333 25.6667V28.5H44.5381C45.3192 28.5 45.9524 29.1332 45.9524 29.9143V31.3381C45.9524 32.9003 44.686 34.1667 43.1238 34.1667H38.9381C38.157 34.1667 37.5238 33.5335 37.5238 32.7524V31.3334H18.4464C18.0693 31.3334 17.7077 31.1827 17.4422 30.9149L15.0476 28.5Z" fill="white"/>
<path fill-rule="evenodd" clip-rule="evenodd" d="M15.0476 20.2911C15.0476 20.1046 15.1213 19.9256 15.2526 19.7932L15.9586 19.0812C16.232 18.8055 16.232 18.361 15.9586 18.0853L15.2526 17.3733C15.1213 17.2409 15.0476 17.0619 15.0476 16.8754V15.0404C15.0476 14.6499 15.3642 14.3333 15.7548 14.3333H17.3193C17.6163 14.3333 17.8571 14.574 17.8571 14.8711V14.8711C17.8571 15.4396 18.6243 15.6193 18.8768 15.11L19.0836 14.6928C19.1928 14.4726 19.4174 14.3333 19.6632 14.3333H22.769C23.1596 14.3333 23.4762 14.651 23.4762 15.0416V15.0416C23.4762 15.4321 23.1596 15.7499 22.769 15.7499H21.3738C20.9833 15.7499 20.6667 16.0677 20.6667 16.4583V16.4583C20.6667 16.8488 20.9833 17.1666 21.3738 17.1666H22.769C23.1596 17.1666 23.4762 17.4832 23.4762 17.8737V22.1261C23.4762 22.5167 23.1596 22.8333 22.769 22.8333H21.3738C20.9833 22.8333 20.6667 22.5167 20.6667 22.1261V20.7023C20.6667 20.3144 20.9811 19.9999 21.369 19.9999V19.9999C21.757 19.9999 22.0714 19.6819 22.0714 19.294V19.294C22.0714 18.9034 21.7548 18.5833 21.3643 18.5833H19.969C19.5785 18.5833 19.2619 18.8999 19.2619 19.2904V22.1309C19.2619 22.5188 18.9474 22.8333 18.5595 22.8333V22.8333C18.1716 22.8333 17.8571 22.5188 17.8571 22.1309V20.7023C17.8571 20.3144 17.5427 19.9999 17.1548 19.9999V19.9999C16.7668 19.9999 16.4524 20.3144 16.4524 20.7023V22.1309C16.4524 22.5188 16.1379 22.8333 15.75 22.8333V22.8333C15.3621 22.8333 15.0476 22.5188 15.0476 22.1309V20.2911Z" fill="white"/>
<path fill-rule="evenodd" clip-rule="evenodd" d="M37.5239 20.2911C37.5239 20.1046 37.5976 19.9256 37.7289 19.7932L38.435 19.0812C38.7083 18.8055 38.7083 18.361 38.435 18.0853L37.7289 17.3733C37.5976 17.2409 37.5239 17.0619 37.5239 16.8754V15.0404C37.5239 14.6499 37.8405 14.3333 38.2311 14.3333H39.7956C40.0927 14.3333 40.3334 14.574 40.3334 14.8711V14.8711C40.3334 15.4396 41.1006 15.6193 41.3531 15.11L41.5599 14.6928C41.6691 14.4726 41.8937 14.3333 42.1395 14.3333H45.2454C45.6359 14.3333 45.9525 14.651 45.9525 15.0416V15.0416C45.9525 15.4321 45.6359 15.7499 45.2454 15.7499H43.8501C43.4596 15.7499 43.143 16.0677 43.143 16.4583V16.4583C43.143 16.8488 43.4596 17.1666 43.8501 17.1666H45.2454C45.6359 17.1666 45.9525 17.4832 45.9525 17.8737V22.1261C45.9525 22.5167 45.6359 22.8333 45.2454 22.8333H43.8501C43.4596 22.8333 43.143 22.5167 43.143 22.1261V20.7023C43.143 20.3144 43.4574 19.9999 43.8454 19.9999V19.9999C44.2333 19.9999 44.5477 19.6819 44.5477 19.294V19.294C44.5477 18.9034 44.2311 18.5833 43.8406 18.5833H42.4454C42.0548 18.5833 41.7382 18.8999 41.7382 19.2904V22.1309C41.7382 22.5188 41.4237 22.8333 41.0358 22.8333V22.8333C40.6479 22.8333 40.3334 22.5188 40.3334 22.1309V20.7023C40.3334 20.3144 40.019 19.9999 39.6311 19.9999V19.9999C39.2432 19.9999 38.9287 20.3144 38.9287 20.7023V22.1309C38.9287 22.5188 38.6142 22.8333 38.2263 22.8333V22.8333C37.8384 22.8333 37.5239 22.5188 37.5239 22.1309V20.2911Z" fill="white"/>
<path fill-rule="evenodd" clip-rule="evenodd" d="M34.7142 16.4516C34.7142 16.8465 34.4947 17.3879 34.2071 17.678L33.8166 18.0718C33.5365 18.3543 33.5289 18.8046 33.8166 19.0947L34.2071 19.4885C34.4872 19.7709 34.7142 20.3031 34.7142 20.7149V22.1183C34.7142 22.5131 34.4135 22.8333 34.0053 22.8333H32.6137C32.2221 22.8333 31.9047 22.53 31.9047 22.1183V20.7149C31.9047 20.32 31.7751 20.2614 31.5789 20.6571L30.8257 22.1761C30.6458 22.539 30.1692 22.8333 29.804 22.8333H26.9815C26.5972 22.8333 26.2856 22.5047 26.2856 22.1249V22.1249C26.2856 21.7337 26.5863 21.4166 26.9946 21.4166H28.3862C28.7778 21.4166 29.0952 21.088 29.0952 20.7083V20.7083C29.0952 20.317 28.7945 19.9999 28.3862 19.9999H26.9946C26.6031 19.9999 26.2856 19.6953 26.2856 19.3051V15.0281C26.2856 14.6443 26.5863 14.3333 26.9946 14.3333H28.3862C28.7778 14.3333 29.0952 14.6365 29.0952 15.0482V16.4516C29.0952 16.8465 28.7694 17.1666 28.3928 17.1666V17.1666C28.0049 17.1666 27.6904 17.4952 27.6904 17.8749V17.8749C27.6904 18.2661 27.9911 18.5833 28.3994 18.5833H29.791C30.1825 18.5833 30.4999 18.2498 30.4999 17.8815V15.0351C30.4999 14.6475 30.8257 14.3333 31.2023 14.3333V14.3333C31.5902 14.3333 31.9047 14.6365 31.9047 15.0482V16.4516C31.9047 16.8465 32.2305 17.1666 32.6071 17.1666V17.1666C32.995 17.1666 33.3095 16.8634 33.3095 16.4516V15.0482C33.3095 14.6534 33.6353 14.3333 34.0118 14.3333V14.3333C34.3997 14.3333 34.7142 14.6365 34.7142 15.0482V16.4516V16.4516Z" fill="white"/>
</g>
</svg>
